lib/svgs/move.svg

<svg xmlns="http://www.w3.org/2000/svg" viewBox="0 0 20 20">
    <path fill="#000" fill-rule="evenodd" d="M7.37,14.96 L9.62,17.96 C9.86,18.28 10.34,18.28 10.58,17.96 L12.83,14.96 C13.1266563,14.5644582 12.8444272,14 12.35,14 L7.85,14 C7.35557281,14 7.07334369,14.5644582 7.37,14.96 L7.37,14.96 L7.37,14.96 Z M11.1415874,15.2112168 L10.1073477,16.6097969 L9.0590249,15.2120332 L11.1415874,15.2112168 L11.1415874,15.2112168 Z M14.96,12.83 L17.96,10.58 C18.28,10.34 18.28,9.86 17.96,9.62 L14.96,7.37 C14.5644582,7.07334369 14,7.35557281 14,7.85 L14,12.35 C14,12.8444272 14.5644582,13.1266563 14.96,12.83 L14.96,12.83 Z M15.2191035,9.06432764 L16.6023691,10.0982231 L15.2342051,11.1243462 L15.2191035,9.06432764 L15.2191035,9.06432764 Z M12.83,5.24 L10.58,2.24 C10.34,1.92 9.86,1.92 9.62,2.24 L7.37,5.24 C7.07334369,5.63554175 7.35557281,6.2 7.85,6.2 L12.35,6.2 C12.8444272,6.2 13.1266563,5.63554175 12.83,5.24 L12.83,5.24 Z M9.05414111,4.99447852 L10.108644,3.61152539 L11.1667227,5.02229687 L9.05414111,4.99447852 L9.05414111,4.99447852 Z M5.24,7.37 L2.24,9.62 C1.92,9.86 1.92,10.34 2.24,10.58 L5.24,12.83 C5.63554175,13.1266563 6.2,12.8444272 6.2,12.35 L6.2,7.85 C6.2,7.35557281 5.63554175,7.07334369 5.24,7.37 L5.24,7.37 Z M5.01457227,11.1609292 L3.61012305,10.0924077 L5.00047461,9.04964404 L5.01457227,11.1609292 L5.01457227,11.1609292 Z"/>
</svg>

<svg xmlns="http://www.w3.org/2000/svg" viewBox="0 0 20 20">
    <path fill="#000" fill-rule="evenodd" d="M7.37 14.96l2.25 3a.6.6 0 0 0 .96 0l2.25-3a.6.6 0 0 0-.48-.96h-4.5a.6.6 0 0 0-.48.96m3.772.251l-1.035 1.399-1.048-1.398h2.083m3.818-2.382l3-2.25a.6.6 0 0 0 0-.96l-3-2.25a.6.6 0 0 0-.96.48v4.5a.6.6 0 0 0 .96.48m.26-3.766l1.382 1.034-1.368 1.026-.015-2.06M12.83 5.24l-2.25-3a.6.6 0 0 0-.96 0l-2.25 3a.6.6 0 0 0 .48.96h4.5a.6.6 0 0 0 .48-.96m-3.776-.246l1.055-1.382 1.058 1.41-2.113-.028M5.24 7.37l-3 2.25a.6.6 0 0 0 0 .96l3 2.25a.6.6 0 0 0 .96-.48v-4.5a.6.6 0 0 0-.96-.48m-.225 3.79L3.61 10.093 5 9.05l.015 2.11"/>
</svg>
